X:1
T:There Be None of Beautys Daughters
T:There Be None of Beautys Daughters
T:Copyright © CPDL
T:Copyright © CPDL
T:Copyright © CPDL
T:Copyright © CPDL
T:Copyright © CPDL
T:Copyright © CPDL
T:Copyright © CPDL
Z:Copyright © CPDL
%%score 1 { ( 2 3 ) ( 4 5 ) }
L:1/8
Q:1/4=120
M:4/4
K:Bb
V:1 treble nm="P1"
V:2 treble nm="P2"
V:3 treble 
V:4 bass nm="P3"
V:5 bass 
V:1
"^Editor: John Henry Fowler""^(  Revision:   7 - 8 - 2008  )""^Allegro." z2 | %1
w: |
"^Words by George Gordon Noel Byron - (1788-1824)""^From \"English Lyrics\" -  Set 4 -  Number 5""^Dedicated \"To Evelyn de Vesci\"" z8 | %2
w: |
"^Charles Hubert Hastings Parry" z8 |"^( 1848 - 1918 )" z8 | z8 | z8 | z4!mf!!<(! F2!<)! _e2 | %7
w: ||||There be|
 d3 A c2 B2 | A2 G4!<(! A!<)!B |!>(! c2!>)!!<(! F4!<)! f2 |!>(! f8-!>)! | f4!p! c2 A2 | %12
w: none of Beau- ty's|daugh- ters With a|ma- gic like|thee;|_ And like|
 A3 B d2 B2 | e4 c2 A2 |!<(! B2 d2!<)! g3 f |!>(! =e4 c3!>)! d |!p!!<(! _e3 e e2!<)! e2 | %17
w: mu- sic on the|wa- ters Is|thy sweet voice to|me. When, as|if its sound were|
!>(! (e2 d2)!>)! c2 B2 | _A2!<(! A2!<)!!>(! c3!>)! A | G2 F2 z2!pp! B2 | B2 c2 B2 c2 | %21
w: cau- * sing The|charm- ed O- cean's|paus- ing, The|waves lie still and|
 (B2 dc) B2 G>B | (cd) e4!>(! f2!>)! | (_g8- | g3 e) c4 | z8 | z8 | z8 | z8 | z4!p! F2 e2 | %30
w: gleam~~~\-- * * \-~~~ing, And the|lulled _ winds seem|dream-|* \- \-~~~ing.|||||And the|
 d2 A2 c2 B2 | A2 G4 B2 | e2 d2 d3 c | f6 B2 | A2 d2 f2 B2 | (A3 d) f2 A=B |!p! (c2 =ed) c3 G | %37
w: mid- night moon is|weav- ing Her|bright chain o'er the|deep, Whose|breast is slow- ly|heav- * ing, As an|in~~\-- * * \-~~fant's a-|
 A4!p! A3 c |"^cresc."!<(! _d2!<)! _A2 A3 d | (_d3 _e) d3 d | =e2 ^A2!<(! =B3!<)! d | %41
w: \-~sleep. So the|spi- rit bows be-|\-~fore _ thee, To|lis- ten and a-|
 (!>!d2 ^c2) =e2 e^f | g3"^rit." ^c (cd=e)=f | (GA) B4 A"^a tempo""^cresc."G |"^a tempo"!<(! d8- | %45
w: \-~dore _ thee, With a|full but soft _ _ e-|\-~mo- * tion, Like the|swell,|
 d2 d2!<)! g4- | g4 c3 G |"^rit." (B2!<(! d2 f2)!<)! ^f2 |!>(! (a2 g2 =f2)!>)! A2 | %49
w: _ the swell|_ like the|swell _ _ of|Sum~~\-- * * \-~~~mer's|
"^a tempo" !>!c4 B2 z2 | z8 | z8 | z8 | z8 |] %54
w: O- cean.|||||
V:2
 [Ff]2 | ([dfd']2 [Aa]2 [cfc']2 [Bb]2) | (=e3 f g2) (.[Aa].[Bb]) | ([c_ec']2 [Ff]4 [Cc]2) | %4
 ([EAe]2 c2) B2 [=FBg]2 |"^cresc." (B2 ^F2 G2) [c=ec']2 | (_e2 =B2 c2) z2 | [FA]2 z2 F,DFd | %8
 [G,B,=E]4 =E,B,EB | [A,_EF]4 A,EAe | ([GAe]2 [FBd]2 [DFB]2 [B,DG]2) | (F3 A) (c3 g) | %12
 (f3 d) (B3 G) | (A3 B) (c3 g) | (f3 d) (g3 f) | ([G=e]cGA) (BG=EB,) | A,2 A2 G2 [EF]2 | %17
 E2 D2 C2 B,2 | (_A3 A) (c3 A) | (GB,DF Bdfb) | (3:2:2x g2 (3:2:2x f2 (3:2:2x g2 (3:2:2x d2 | %21
 (3:2:2x e2 (3:2:2x d2 (3:2:2x g2 (3:2:2x x2 | (3:2:2x e2 (3:2:2x B2 (3:2:2x c2 (3:2:2x d2 | %23
 (3:2:2x e2 (3:2:2x =B2 (3:2:2x c2 (3:2:2x x2 | (3(_GcD (3EG=B, (3CEA, (3C_G,A,) | %25
 (D,E,_G,)C, z2[K:treble] [Fef]2 | ([dfd']2 [Aa]2 [cfc']2 [Bb]2) | (=e3 f g2) ([Aa][Bb]) | %28
 ([c_ec']2 [Ff]4 [Ac]2) | e4- (ecAE) | (3(DF,D (3FDF,) (3(DF,D (3FDF,) | %31
 (3(DG,D (3GDG,) (3(DG,D (3GDG,) | (3(EG,E (3GEG,) (3(EA,E (3AEA,) | %33
 (3(DB,D (3BDB,) (3(DB,D (3BDB,) | (3z (A,F (3AFA,) (3z (DF (3B=ED) | %35
 (3z (A,F (3AFA,) (3z (DF (3dFD) | (3z (A,F (3AFC) (3z (B,G (3cGB,) | %37
 (3z (A,F (3AFA,) (3z (FA (3cAC) | (3z (_C_D (3_ADC) (3(_GDC) (3(FDC) | %39
 (3:2:2c2 x (3:2:2B2 x (3:2:2A2 x (3:2:2G2 x | (3z (^A,=E (3^AEA,) (3z (=B,E (3=BEB,) | %41
 (3:2:2d2 x (3:2:2c2 x (3:2:2B2 x (3:2:2A2 x | (3z (^CG (3^cGC) (3z (D=F (3GFD) | %43
 (3z (C=E (3_BEC) (3z (EB (3=eBE) | (3:2:2A2 x (3:2:2G2 x (3:2:2B2 x (3:2:2A2 x | %45
 (3:2:2c2 x (3:2:2B2 x!<(! (3:2:2e2 x (3:2:2d2!<)! x | %46
 (3:2:2c2 x (3:2:2e2 x (3:2:2c2 x (3:2:2G2 x |!<(! [B,DB]2 z2[K:bass] [F,B,D]2!<)!!>(! [=E,B,_D]2 | %48
 [_E,C]6!>)![K:treble] x2 | ([fbf']2 [cc']2 [ebe']2 [dd']2) | ([Bb]2 [^F^f]2 [Aea]2 [Gg]2) | %51
 ([EAe]2 [=B,=B]2) ([DFd]2 [Cc]2 | [EA]2) .[CE]2 ([EG]2 [DF]2) | [F,B,D]8 |] %54
V:3
 x2 | x8 | [B_d]4 x4 | x8 | x2 [Dd]4 x2 | [=Ec]6 x2 | [Ff]6 x2 | x8 | x4 =E,3 x | x4 A,2 x2 | x8 | %11
 FA,CA cFAg | fBFd BDFG | ACEB cFAg | fFBd g=EBF | x8 | x2 [Ee]4 x2 | F8 | _ACEA cCEA | x8 | %20
 (3(BgG (3B^f^F (3BgG (3BdF) | (3(BeG (3Bd^F (3BgG (3Beg) | (3(GeE (3G=BE (3GcE (3GdE) | %23
 (3(_GeE (3G=BE (3GcE (3CEF) | x8 | x6[K:treble] x2 | x8 | [B_d]6 x2 | x8 | (G2 _G2 F2) z2 | x8 | %31
 x8 | x8 | x8 | x8 | x8 | x8 | x x x2 x4 | (3x x x (3:2:2_A2 x (3:2:2_G2 x (3:2:2F2 x | %39
 (3(_c_D_C (3BDB, (3_AD_A, (3_G)D_G, | (3x x x (3:2:2^A2 x (3:2:2x2 x (3:2:2=B2 x | %41
 (3(d=ED (3^cE^C (3=BE=B, (3A)EA, | x8 | x8 | (3(AFA, (3^G)F^G, (3(BFB, (3A)FA, | %45
 (3(c^FC (3B)GB, (3(eBE (3d)=BD | (3(c=BF (3ecE (3c)GC (3GCB, | x4[K:bass] x4 | %48
 (B,4 A,2)[K:treble] [Ff]2 | x8 | x8 | x8 | x4 A,4 | x8 |] %54
V:4
!mf!!<(! F,2!<)! | (B,,,F,,B,,D, F,B,DF) | z (G=E_D B,!<(!G,=E,!<)!_D,) | %3
!>(! z (B,,,F,,A,, C,!>)!F,A,F,) | ^F,2 A,2 G,2 x2 | z (C,,G,,C, =E,G,B,C,) | %6
 z (F,,C,F, A,C[EF]F,) | B,,,(F,,B,,F, x4) | z (C,,G,,C, x3 C,) | z (F,,C,F, x2 F,2) | %10
 z"^dim." B,,F,B, z D,F,B, |!p! (F,4 A,2) F,2 | (F,4 B,2) F,2 | [C,F,]6 [E,F,]2 | %14
!<(! F,4!<)! z2 B,2 |!>(! B,8!>)! |!p! F,,C,F,F,, G,,C,A,,F, | (B,,F,B,F,) E,F,D,F, | %18
 [C,E,_A,]6 C,2 | [D,_A,B,]6!pp! B,,2 | (E,,B,,) B,2- B,(B,,B,B,,) | (E,,B,,) B,2- B,(B,,B,B,,) | %22
 (E,,C,) G,2- G,(C,G,C,) |!pp! (E,,C,) _G,2- G,(C,G,C,) | E,,2 [E,_G,=A,]2 z4 | %25
 z4 E,(_G,,!mf!!<(!F,,F,) | (B,,,!<)!F,,B,,D, F,B,DF) | z (G=E_D B,!<(!G,=E,!<)!_D,) | %28
 z!>(! (F,,C,F, A,CF!>)!F,) | (G,B,_A,_C =C2) z2 |!p! B,,,F,, z F,, B,,,F,, z F,, | %31
 B,,,G,, z G,, B,,,G,, z G,, | B,,,G,, z G,, B,,,F,, z F,, | B,,,F,, z F,, B,,,F,, z B,, | %34
 D,,A,,D,A,, (D,,A,,G,,B,,) | (D,,A,,D,A,,) (D,A,,D,,A,,) | (C,,A,,C,D,) =E,2 C,2 | %37
 (F,,C,F,C, CA,F,F,,) |!p! F,,"^cresc."_D,_A,D, E,,_A,,D,,A,, | (_G,,_D,_G,D,) (_C,D,B,,D,) | %40
 (G,,"^cresc."^C,=E,C,) (^G,,E,=B,E,) | (A,,=E,A,E,) (D,E,C,E,) | %42
 (^A,,=E,"^rit."G,E,) (=B,,G,DG,) | (E,G,) z C, (C,G,) z ^C, | %44
"^cresc.  molto"!<(!!<(! (D,,A,,D,A,, D,!<)!!<)!A,,)D,,A,, |!<(! (G,,,D,,G,,!<)!B,,) G,,D,G,G,, | %46
!f! (C,,G,,C,E,) (E,,G,,C,E,) |"^rit."!<(! F,,2 z2 (3F,,,F,,F,,,!<)! (3F,,F,,,F,, | %48
!>(! F,,,2 z2!>)! F,,4 |!f! (B,,,"^a tempo"F,,B,,D, F,B,DF) | [G,G]2 z2 (C,G,B,E) | %51
 [F,A,]2 z2 (F,,C,E,A, | C2) z2 [F,,,F,,]4 | [B,,,F,,]8 |] %54
V:5
 x2 | B,,,2 x2 x4 | x8 | x B,,,2 x x4 | (^F,B,,A,B,, G,B,,G,D) | x C,,2 x x4 | x F,,2 x x4 | %7
 B,,,2 x2 x4 | x C,,2 x x4 | x F,,2 x x4 | x ((B,,2 x2)) (D,2 x) | E,6 E,2 | D,6 D,2 | x8 | %14
 D,4 _D,4 | C,8 | F,,3 F,, G,,2 A,,2 | B,,3 x E,2 D,2 | x8 | x8 | E,,2 z2 x4 | E,,2 x2 x4 | %22
 E,,2 x2 x4 | E,,2 x2 x4 | x8 | x8 | B,,,2 x2 x4 | x8 | x F,,2 x x4 | G,2 _A,2 =A,2 x2 | %30
 B,,,2 x2 B,,,2 x2 | B,,,2 x2 B,,,2 x2 | B,,,2 x2 B,,,2 x2 | B,,,2 x2 B,,,2 x2 | %34
 D,,2 x2 D,,2 G,,2 | D,,2 x2 x4 | C,,2 x2 x4 | F,,2 x2 x4 | F,,2 x2 E,,2 _D,,2 | %39
 _G,,2 x2 _C,2 B,,2 | =G,,2 x2 ^G,,2 x2 | A,,2 z2 D,2 ^C,2 | ^A,,2 x2 =B,,2 x2 | E,2 x2 ^C,2 x2 | %44
 D,,2 x2 x2 D,,2 | G,,,2 x2 G,,3 G,, | C,,2 x2 E,,2 x2 | x8 | x8 | B,,,2 x2 x4 | x4 C,2 x2 | %51
 x4 F,,2 x2 | x8 | x8 |] %54

